sprites/streets-v8/_svg/fast-food-15.svg

<?xml version="1.0" encoding="UTF-8" standalone="no"?>
<svg
   xmlns:dc="http://purl.org/dc/elements/1.1/"
   xmlns:cc="http://creativecommons.org/ns#"
   xmlns:rdf="http://www.w3.org/1999/02/22-rdf-syntax-ns#"
   xmlns:svg="http://www.w3.org/2000/svg"
   xmlns="http://www.w3.org/2000/svg"
   id="svg2"
   width="23"
   height="23"
   viewBox="0 0 23 23"
   version="1.1">
  <metadata
     id="metadata14">
    <rdf:RDF>
      <cc:Work
         rdf:about="">
        <dc:format>image/svg+xml</dc:format>
        <dc:type
           rdf:resource="http://purl.org/dc/dcmitype/StillImage" />
      </cc:Work>
    </rdf:RDF>
  </metadata>
  <defs
     id="defs12" />
  <ellipse
     id="ellipse4"
     ry="11.5"
     rx="11.5"
     cy="11.5"
     cx="11.5"
     style="fill:#ffffff;stroke:none;" />
  <ellipse
     id="ellipse6"
     ry="10.5"
     rx="10.5"
     cy="11.5"
     cx="11.5"
     style="fill:#ab9483;stroke:none;" />
  <g
     id="g8"
     transform="translate(5,5.5)">
      <defs     id="defs4621" />  <metadata     id="metadata4624">    <rdf:RDF>      <cc:Work         rdf:about="">        <dc:format>image/svg+xml</dc:format>        <dc:type           rdf:resource="http://purl.org/dc/dcmitype/StillImage" />        <dc:title />      </cc:Work>    </rdf:RDF>  </metadata>  <path     id="rect3337"     d="m 3.5246679,0 c 0,0 -2.62607456,-2.624068e-4 -2.62607456,2.6792956 l -0.0162404,1.5106645 0.66176466,0.2205883 10.1470594,0 0.661764,-0.2205883 0.01553,-1.5578031 C 12.394729,-0.00177124 9.7216163,0 9.6663678,0 Z m 1.327483,0.88194748 0.00152,0 c 0.2230462,-0.00709 0.4162645,0.15348812 0.4500974,0.37406742 l 0.00456,0.027371 C 5.3303205,1.5239429 5.1547668,1.7374553 4.9144954,1.7623744 4.6748997,1.787228 4.4596588,1.615306 4.430945,1.3761422 4.4013404,1.1368886 4.5692702,0.91817358 4.8080535,0.88498868 c 0.014639,-0.00175 0.029356,-0.00276 0.044097,-0.003041 z m 3.5293102,0 0.00152,0 c 0.2236173,-0.00788 0.4177208,0.15289392 0.4516185,0.37406742 l 0.00304,0.027371 C 8.8596318,1.5239432 8.6840774,1.7374558 8.4438056,1.7623744 8.20421,1.7872277 7.9889695,1.6153058 7.9602557,1.3761422 7.9306511,1.1368885 8.0985809,0.91817358 8.3373643,0.88498868 c 0.014639,-0.00175 0.029356,-0.00276 0.044097,-0.003041 z m -5.2947258,1.76389492 0.0015,0 c 0.2236172,-0.00788 0.4177204,0.1528941 0.451618,0.3740675 l 0.00304,0.02737 C 3.5649247,3.287304 3.3902408,3.5005821 3.1505803,3.5262693 2.9109498,3.5520565 2.6949725,3.380764 2.6655093,3.1415577 2.6359549,2.9017869 2.8047402,2.6828403 3.0441383,2.6504043 c 0.014111,-0.00221 0.028321,-0.00373 0.04258,-0.00456 z m 3.5308311,0 c 0.2236171,-0.00788 0.4177201,0.1528943 0.4516177,0.3740675 l 0.00304,0.02737 C 7.0942555,3.2873041 6.9195715,3.5005822 6.679911,3.5262693 6.4402805,3.5520565 6.224303,3.380764 6.1948399,3.1415577 6.1652855,2.9017868 6.3340709,2.6828403 6.573469,2.6504043 c 0.014613,-0.00226 0.029331,-0.00378 0.044097,-0.00456 z m 3.5293106,0 c 0.223617,-0.00788 0.417719,0.1528945 0.451617,0.3740675 l 0.003,0.02737 C 10.623525,3.2873047 10.44884,3.500583 10.209179,3.5262692 9.9695486,3.5520563 9.7535713,3.3807639 9.7241081,3.1415577 9.6945536,2.9017869 9.8633389,2.6828403 10.102737,2.6504042 c 0.01461,-0.00226 0.02933,-0.00378 0.0441,-0.00456 z m -9.26452405,6.3970591 0.0162404,0.6550736 c 0,0 -2.19e-4,0.8895499 0.92148295,0.8895499 l 9.7151077,0 c 0.860611,0 0.833288,-0.8728239 0.833288,-0.8728239 L 12.352941,9.0429015 11.691177,8.8223131 6.243499,8.822516 4.4279037,10.146957 2.6883383,8.822516 1.5441176,8.8223131 Z"     style="opacity:1;fill:#ffffff;fill-opacity:1;stroke:none;stroke-width:0;stroke-linecap:round;stroke-linejoin:round;stroke-miterlimit:4;stroke-dasharray:none;stroke-dashoffset:0;stroke-opacity:1" />  <path     id="rect7791"     d="m 1.3235293,5.2929015 10.5882357,0 c 0.733235,0 1.323529,0.5902941 1.323529,1.3235293 0,0.7332353 -0.590294,1.3235294 -1.323529,1.3235294 l -4.411765,0 -1.5441176,0 -1.5441177,1.1029413 -1.5441177,-1.1029413 -1.5441177,0 C 0.59029413,7.9399602 0,7.3496661 0,6.6164308 0,5.8831956 0.59029413,5.2929015 1.3235293,5.2929015 Z"     style="fill:#ffffff;fill-rule:evenodd;stroke:none;stroke-width:0.88235295px;stroke-linecap:butt;stroke-linejoin:miter;stroke-opacity:1" />
  </g>
</svg>

<?xml version="1.0" encoding="utf-8"?>
<!-- Generator: Adobe Illustrator 17.1.0, SVG Export Plug-In . SVG Version: 6.00 Build 0)  -->
<!DOCTYPE svg PUBLIC "-//W3C//DTD SVG 1.1//EN" "http://www.w3.org/Graphics/SVG/1.1/DTD/svg11.dtd">
<svg version="1.1"
	 id="svg2" xmlns:svg="http://www.w3.org/2000/svg" xmlns:cc="http://creativecommons.org/ns#" xmlns:dc="http://purl.org/dc/elements/1.1/" xmlns:rdf="http://www.w3.org/1999/02/22-rdf-syntax-ns#"
	 xmlns="http://www.w3.org/2000/svg" xmlns:xlink="http://www.w3.org/1999/xlink" x="0px" y="0px" width="23px" height="23px"
	 viewBox="0 0 23 23" enable-background="new 0 0 23 23" xml:space="preserve">
<ellipse id="ellipse4" fill="#FFFFFF" cx="11.5" cy="11.5" rx="11.5" ry="11.5"/>
<ellipse id="ellipse6" fill="#AB9483" cx="11.5" cy="11.5" rx="10.5" ry="10.5"/>
<g id="g8" transform="translate(5,5.5)">
	<path id="rect3337" fill="#FFFFFF" d="M3.5,0c0,0-2.6,0-2.6,2.7v1.5l0.7,0.2h10.1l0.7-0.2V2.6C12.4,0,9.7,0,9.7,0H3.5z M4.9,0.9
		L4.9,0.9c0.2,0,0.4,0.2,0.5,0.4l0,0c0,0.2-0.2,0.5-0.4,0.5c-0.2,0-0.5-0.1-0.5-0.4C4.4,1.1,4.6,0.9,4.9,0.9
		C4.8,0.9,4.8,0.9,4.9,0.9z M8.4,0.9L8.4,0.9c0.2,0,0.4,0.2,0.5,0.4l0,0c0,0.2-0.2,0.5-0.4,0.5C8.2,1.8,8,1.6,8,1.4
		C7.9,1.1,8.1,0.9,8.4,0.9L8.4,0.9z M3.1,2.6L3.1,2.6c0.2,0,0.4,0.2,0.5,0.4l0,0c0,0.2-0.2,0.5-0.4,0.5S2.7,3.4,2.7,3.1
		C2.6,2.9,2.8,2.7,3.1,2.6L3.1,2.6L3.1,2.6z M6.6,2.6C6.8,2.6,7,2.8,7.1,3l0,0c0,0.2-0.2,0.5-0.4,0.5c-0.2,0-0.5-0.1-0.5-0.4
		C6.2,2.9,6.3,2.7,6.6,2.6L6.6,2.6z M10.1,2.6c0.2,0,0.4,0.2,0.5,0.4l0,0c0,0.2-0.2,0.5-0.4,0.5S9.7,3.4,9.7,3.1
		C9.7,2.9,9.9,2.7,10.1,2.6L10.1,2.6L10.1,2.6z M0.9,9v0.7c0,0,0,0.9,0.9,0.9h9.7c0.9,0,0.8-0.9,0.8-0.9V9l-0.7-0.2H6.2l-1.8,1.3
		L2.7,8.8H1.6L0.9,9z"/>
	<path id="rect7791" fill="#FFFFFF" d="M1.3,5.3h10.6c0.7,0,1.3,0.6,1.3,1.3s-0.6,1.3-1.3,1.3H7.5H6L4.4,9L2.9,7.9H1.3
		C0.6,7.9,0,7.3,0,6.6S0.6,5.3,1.3,5.3z"/>
</g>
</svg>
